#src/img/fixing/c3.svg

<svg width="95" height="95" viewBox="0 0 95 95" fill="none" xmlns="http://www.w3.org/2000/svg">
  <g clip-path="url(#clip0)">
    <path d="M3.50312 85.7542H11.2591V79.569H14.7283V94.8308H11.2591V88.4576H3.50312V94.8308H0.0225525V79.569H3.50312V85.7542Z" fill="#231F20"/>
    <path d="M21.0528 88.7133C21.0528 91.4054 21.9079 92.5334 24.782 92.5334C27.6674 92.5334 28.4961 91.4054 28.4961 88.7133V79.569H31.9804V88.796C31.9804 90.755 31.7431 92.0898 31.0048 92.8982C29.6488 94.3871 27.6674 95.0037 24.7858 95.0037C21.9116 95.0037 19.9001 94.3909 18.5441 92.8982C17.7794 92.0747 17.5986 90.7324 17.5986 88.796V79.569H21.0566V88.7133" fill="#231F20"/>
    <path d="M38.9416 88.4802H43.8837L41.3674 82.6108L38.9416 88.4802ZM43.3413 79.569L50.4003 94.8345H46.528L45.0062 91.2062H37.8191L36.3425 94.8345H32.6585L39.6535 79.569H43.3413Z" fill="#231F20"/>
    <path d="M51.9786 79.569L55.8057 91.3002L59.0301 79.569H63.1322L66.8464 91.3002L70.4098 79.569H73.9808L68.8692 94.8308H64.6051L61.0755 83.438L57.9905 94.8308H53.749L48.2419 79.569H51.9786Z" fill="#231F20"/>
    <path d="M78.6742 85.7729H88.2948V88.4275H78.6479C78.678 91.1798 79.8457 92.1762 82.5767 92.1762H88.2948V94.8308H82.4185C80.4183 94.8308 78.8701 94.6879 77.2579 93.4922C75.5553 92.2439 74.7266 90.2436 74.7266 87.48C74.7266 82.0806 77.1938 79.5652 82.5089 79.5652H88.2948V82.2235H82.5767C80.0755 82.2273 78.8098 83.3778 78.6742 85.7729Z" fill="#231F20"/>
    <path d="M94.9962 79.569H91.3612V94.8345H94.9962V79.569Z" fill="#231F20"/>
    <path d="M40.8816 55.7758C40.8816 55.7758 41.0436 55.6442 40.9569 55.4298H40.9645C29.8033 31.0726 14.54 12.6035 14.54 12.6035C14.54 12.6035 6.2341 20.4732 6.8255 28.3616C7.14191 34.3325 11.632 37.8669 11.632 37.8669C18.8832 44.9244 36.4179 53.8243 40.4898 55.8434C40.5426 55.8698 40.7573 55.9337 40.8816 55.7758Z" fill="#9A080D"/>
    <path d="M38.1731 61.8105C38.0977 61.5473 37.7888 61.5473 37.7888 61.5473V61.536L8.60327 62.555C11.7674 68.1987 17.1051 72.5753 22.6574 71.233C26.4921 70.278 35.1671 64.2319 38.0375 62.179L38.0299 62.1715C38.2484 61.9722 38.1731 61.8105 38.1731 61.8105Z" fill="#9A080D"/>
    <path d="M38.6026 59.186C38.7495 58.9604 38.5009 58.7574 38.5009 58.7574L38.5084 58.7536C25.686 50.1094 0.832348 36.8479 0.832348 36.8479C-1.42776 43.834 1.61962 49.4552 1.61962 49.4552C4.78377 56.148 10.8296 58.1708 10.8296 58.1708C13.6208 59.3214 16.412 59.3966 16.412 59.3966C16.8528 59.4718 33.781 59.4041 38.3163 59.3853C38.5046 59.3853 38.6026 59.186 38.6026 59.186Z" fill="#9A080D"/>
    <path d="M40.5499 0C39.2768 0.11656 35.8489 0.898638 35.8489 0.898638C28.1193 2.89144 26.2924 9.90006 26.2924 9.90006C24.8798 14.3105 26.3301 19.1534 26.3301 19.1534C28.9066 30.5875 41.6047 49.38 44.3356 53.3242C44.524 53.5235 44.6784 53.4521 44.6784 53.4521C44.976 53.3731 44.9534 53.0911 44.9534 53.0911C49.1534 11.1296 40.5499 0 40.5499 0Z" fill="#9A080D"/>
    <path d="M50.2157 53.4408C50.4945 53.5536 50.6414 53.2829 50.6414 53.2829H50.6489C53.4402 49.2334 66.0553 30.5462 68.6319 19.1534C68.6319 19.1534 70.0181 13.63 68.6695 9.90006C68.6695 9.90006 66.7635 2.7824 59.0189 0.898639C59.0189 0.898639 56.7926 0.334639 54.4308 0C54.4308 0 45.7821 11.1333 49.9859 53.1212H49.9935C50.0236 53.3919 50.2157 53.4408 50.2157 53.4408Z" fill="#9A080D"/>
    <path d="M57.128 61.5623C57.128 61.5623 56.8643 61.5962 56.7965 61.7879C56.7965 61.7879 56.7363 62.0511 56.9058 62.179V62.1865C59.697 64.1906 68.1687 70.105 72.2519 71.2594C72.2519 71.2594 79.7969 73.8199 86.3588 62.5775L57.128 61.5548V61.5623Z" fill="#9A080D"/>
    <path d="M94.1184 36.7803C94.1184 36.7803 69.3062 50.0869 56.4725 58.7274L56.4801 58.7386C56.4801 58.7386 56.2465 58.889 56.3219 59.1598C56.3219 59.1598 56.4462 59.3854 56.627 59.3854V59.3891C61.215 59.3929 78.6103 59.4079 79.051 59.3365C79.051 59.3365 81.2998 59.2425 84.0685 58.1784C84.0685 58.1784 90.2574 56.2157 93.4705 49.1995C93.4705 49.1958 96.3371 43.4731 94.1184 36.7803Z" fill="#9A080D"/>
    <path d="M54.137 55.7757C54.137 55.7757 54.3329 55.9261 54.525 55.8096C58.7062 53.7378 76.1091 44.8905 83.3188 37.8669C83.3188 37.8669 87.8767 34.2084 88.1178 28.324C88.6376 20.1611 80.4184 12.5997 80.4184 12.5997C80.4184 12.5997 65.204 31.0011 54.0428 55.3133H54.0504C54.0504 55.3133 53.9223 55.5953 54.137 55.7757Z" fill="#9A080D"/>
  </g>
  <defs>
    <clipPath id="clip0">
      <rect width="95" height="95" fill="white"/>
    </clipPath>
  </defs>
</svg>

<svg width="95" height="95" fill="none" xmlns="http://www.w3.org/2000/svg"><g clip-path="url(#clip0)"><path d="M3.503 85.754h7.756V79.57h3.47v15.262h-3.47v-6.373H3.503v6.373H.023V79.569h3.48v6.185zm17.55 2.959c0 2.692.855 3.82 3.729 3.82 2.885 0 3.714-1.128 3.714-3.82V79.57h3.484v9.227c0 1.959-.237 3.294-.975 4.102-1.356 1.49-3.338 2.106-6.22 2.106-2.873 0-4.885-.613-6.24-2.106-.766-.823-.946-2.166-.946-4.102V79.57h3.458v9.144m17.885-.234h4.942l-2.517-5.87-2.425 5.87zm4.4-8.911L50.4 94.835h-3.872l-1.522-3.629H37.82l-1.477 3.629h-3.684l6.995-15.266h3.688zm8.637 0L55.806 91.3l3.224-11.73h4.102l3.714 11.73 3.564-11.73h3.57l-5.11 15.262h-4.265l-3.53-11.393-3.085 11.393h-4.24L48.243 79.57h3.737zm26.695 6.204h9.62v2.654h-9.646c.03 2.753 1.198 3.75 3.929 3.75h5.718v2.654h-5.877c-2 0-3.548-.143-5.16-1.339-1.703-1.248-2.531-3.248-2.531-6.012 0-5.4 2.467-7.915 7.782-7.915h5.786v2.659h-5.718c-2.501.003-3.767 1.154-3.903 3.549zm16.322-6.204h-3.635v15.266h3.635V79.569z" fill="#231F20"/><path d="M40.882 55.776s.162-.132.075-.346h.008C29.803 31.073 14.54 12.603 14.54 12.603s-8.306 7.87-7.714 15.759c.316 5.97 4.806 9.505 4.806 9.505 7.251 7.057 24.786 15.957 28.858 17.976.053.027.267.09.392-.067zm-2.709 6.034c-.075-.263-.384-.263-.384-.263v-.011L8.603 62.555c3.164 5.644 8.502 10.02 14.054 8.678 3.835-.955 12.51-7.001 15.38-9.054l-.007-.008c.218-.199.143-.36.143-.36zm.43-2.624c.146-.226-.102-.429-.102-.429l.007-.003C25.686 50.109.832 36.848.832 36.848c-2.26 6.986.788 12.607.788 12.607 3.164 6.693 9.21 8.716 9.21 8.716 2.79 1.15 5.582 1.226 5.582 1.226.44.075 17.369.007 21.904-.012.189 0 .287-.199.287-.199zM40.55 0c-1.273.117-4.701.899-4.701.899C28.119 2.89 26.292 9.9 26.292 9.9c-1.412 4.41.038 9.253.038 9.253 2.577 11.434 15.275 30.227 18.006 34.171.188.2.342.128.342.128.298-.079.275-.36.275-.36C49.153 11.13 40.55 0 40.55 0zm9.666 53.44c.279.114.425-.157.425-.157h.008c2.791-4.05 15.406-22.737 17.983-34.13 0 0 1.386-5.523.037-9.253 0 0-1.906-7.118-9.65-9.001 0 0-2.226-.564-4.588-.899 0 0-8.649 11.133-4.445 53.121h.008c.03.27.222.32.222.32zm6.912 8.122s-.264.034-.331.226c0 0-.06.263.109.391v.008c2.791 2.004 11.263 7.918 15.346 9.072 0 0 7.545 2.56 14.107-8.681l-29.231-1.023v.007zm36.99-24.782S69.306 50.087 56.473 58.727l.007.012s-.233.15-.158.42c0 0 .124.226.305.226v.004c4.588.004 21.983.019 22.424-.053 0 0 2.249-.093 5.017-1.158 0 0 6.19-1.962 9.403-8.978 0-.004 2.866-5.727.647-12.42zM54.137 55.776s.196.15.388.034c4.181-2.072 21.584-10.92 28.794-17.943 0 0 4.558-3.659 4.799-9.543.52-8.163-7.7-15.724-7.7-15.724S65.204 31 54.043 55.313h.007s-.128.282.087.463z" fill="#9A080D"/></g><defs><clipPath id="clip0"><path fill="#fff" d="M0 0h95v95H0z"/></clipPath></defs></svg>
